X: 8153
T: Cook In The Kitchen, The
R: jig
M: 6/8
K: Gmajor
|:DGG GFG|ABA ABc|d2B c2A|B2G A2F|
DGG GFG|ABA ABc|d2B cBA|1 G3 G3:|2 G3 def||
|:g2g gfe|f2f fed|e2e efg|a2g e2f|
g2B Bcd|e2A ABc|d2B cBA|1 G3 def:|2 G3 G3||

